svg/white/tern.svg

<svg width="32" height="32" viewBox="0 0 32 32" version="1.1" xmlns="http://www.w3.org/2000/svg" xmlns:xlink="http://www.w3.org/1999/xlink"><title>svg/white/tern</title><desc>Created with Sketch.</desc><g id="white/tern" stroke="none" stroke-width="1" fill="none" fill-rule="evenodd"><path d="M16,32 C7.163444,32 0,24.836556 0,16 C0,7.163444 7.163444,0 16,0 C24.836556,0 32,7.163444 32,16 C32,24.836556 24.836556,32 16,32 Z M26.9835,15.7741935 L26.9835,15.5435484 L22.4621452,18.1716613 L22.4621452,16.8623065 L26.9827903,14.2350806 L26.9827903,9.38709677 L15.9914839,3 L10.4957419,6.19354839 L10.2975645,6.30869355 L14.8187419,8.93574194 L13.6923065,9.59041935 L9.17112903,6.96301613 L5,9.38709677 L5,22.1612903 L10.4953871,25.3548387 L10.6935645,25.4701613 L10.6935645,20.2157097 L11.8203548,20.8703871 L11.8203548,26.1250161 L15.9916613,28.5483871 L26.9831452,22.1612903 C26.9831452,20.0322581 26.9831452,17.9032258 26.9831452,15.7741935 L26.9835,15.7741935 Z M21.2883387,13.3501129 L16.7373548,15.9959677 L16.7373548,21.4982742 L15.9921935,21.9313548 L15.4285323,21.6040161 L15.4285323,16.313371 L10.6937419,13.562129 L10.6937419,12.6957903 L11.256871,12.3677419 L15.8089194,15.0130645 L20.5435323,12.2623548 L21.2886935,12.6956129 L21.2886935,13.3506452 L21.2883387,13.3501129 Z M14.8302742,6.27037097 L15.9914839,5.59617742 L24.7492581,10.6854516 L24.7492581,12.8607903 L23.5884032,13.5349839 L23.5884032,11.3592903 L20.5431774,9.59024194 L15.8089194,12.3414839 L14.6824839,11.6868065 L19.4169194,8.9353871 L14.8302742,6.27037097 Z M8.39456452,21.5385484 L7.23335484,20.8643548 L7.23335484,10.6850968 L9.10548387,9.59698387 L10.2665161,10.2711774 L8.39456452,11.3598226 L8.39456452,14.8984516 L13.129,17.6495161 L13.129,18.958871 L8.39456452,16.2079839 L8.39456452,21.5385484 Z M24.7499677,19.514371 L24.7499677,20.8638226 L15.9918387,25.9530968 L14.1195323,24.8651613 L14.1195323,23.5158871 L15.9916613,24.6034677 L19.0365323,22.8340645 L19.0365323,17.3319355 L20.1627903,16.6772581 L20.1627903,22.1797419 L24.7499677,19.5141935 L24.7499677,19.514371 Z" id="Combined-Shape" fill="#FFF" fill-rule="nonzero"/></g></svg>

<svg width="32" height="32" viewBox="0 0 32 32" xmlns="http://www.w3.org/2000/svg"><path d="M16 32C7.163 32 0 24.837 0 16S7.163 0 16 0s16 7.163 16 16-7.163 16-16 16zm10.983-16.226v-.23l-4.52 2.628v-1.31l4.52-2.627V9.387L15.99 3l-5.495 3.194-.198.115 4.52 2.627-1.126.654-4.52-2.627L5 9.387v12.774l5.495 3.194.199.115v-5.254l1.126.654v5.255l4.172 2.423 10.991-6.387v-6.387zm-5.695-2.424l-4.55 2.646v5.502l-.746.433-.563-.327v-5.29l-4.735-2.752v-.866l.563-.328 4.552 2.645 4.735-2.75.745.433v.655zM14.83 6.27l1.161-.674 8.758 5.09v2.175l-1.16.674v-2.176L20.542 9.59l-4.734 2.751-1.127-.654 4.735-2.752L14.83 6.27zM8.395 21.54l-1.162-.675v-10.18l1.872-1.088 1.162.674-1.872 1.089v3.538l4.734 2.752v1.309l-4.734-2.751v5.33zm16.355-2.025v1.35l-8.758 5.09-1.872-1.089v-1.35l1.872 1.088 3.045-1.769v-5.502l1.126-.655v5.503l4.587-2.666z" fill="#FFF"/></svg>
